src/icons/svg/command.svg

<svg width="20" height="20" viewBox="0 0 20 20" fill="none" xmlns="http://www.w3.org/2000/svg">
  <path
    d="M14.8061 11.3666L13.3422 11.3605V8.70739L14.8061 8.71345C16.5701 8.71345 18 7.03253 18 5.28504C18 3.53755 16.5701 2 14.8061 2C13.042 2 11.3523 3.53755 11.3523 5.28504V6.73536H8.67863V5.28504C8.67863 3.53755 6.98783 2 5.2239 2C3.45997 2 2 3.53755 2 5.28504C2 7.03253 3.45997 8.70739 5.2239 8.70739H6.68785V11.3545H5.2239C3.45997 11.3545 2.00001 13.0265 2.00001 14.774C2.00001 16.5215 3.45997 18 5.2239 18C6.98802 18 8.6811 16.5255 8.6811 14.778L8.67863 13.3277H11.6096L11.612 14.774L11.6118 14.778C11.6118 16.5255 13.0422 18 14.8061 18C16.5701 18 18 16.5255 18 14.778C18 13.0305 16.5701 11.367 14.8061 11.3666ZM14.8061 3.70288C15.6881 3.70288 16.4032 4.41129 16.4032 5.28504C16.4032 6.15879 15.6881 6.73536 14.8061 6.73536H13.3422V5.28504C13.3422 4.41129 13.9242 3.70288 14.8061 3.70288ZM3.62686 5.28504C3.62686 4.41129 4.34193 3.70288 5.2239 3.70288C6.10586 3.70288 6.68785 4.41129 6.68785 5.28504V6.73536H5.2239C4.34193 6.73536 3.62686 6.15859 3.62686 5.28504ZM5.2239 16.3601C4.34193 16.3601 3.62686 15.6517 3.62686 14.778C3.62686 13.9042 4.34193 13.3277 5.2239 13.3277H6.68785V14.778C6.68785 15.6517 6.10586 16.3601 5.2239 16.3601ZM8.67863 11.3605V8.71345L11.3523 8.70739V11.3545L8.67863 11.3605ZM14.8061 16.3601C13.9242 16.3601 13.3422 15.6517 13.3422 14.778L13.3424 13.3277H14.8061C15.6881 13.3277 16.403 13.9042 16.403 14.778C16.403 15.6517 15.6881 16.3601 14.8061 16.3601Z"
    fill="#414146" />
</svg>

<svg xmlns="http://www.w3.org/2000/svg" width="20" height="20" fill="none"><path fill="#414146" d="m14.806 11.367-1.464-.007V8.708l1.464.006C16.57 8.713 18 7.033 18 5.285S16.57 2 14.806 2s-3.454 1.538-3.454 3.285v1.45H8.68v-1.45C8.679 3.538 6.988 2 5.224 2S2 3.538 2 5.285s1.46 3.422 3.224 3.422h1.464v2.647H5.224C3.46 11.355 2 13.028 2 14.775S3.46 18 5.224 18s3.457-1.474 3.457-3.222l-.002-1.45h2.93l.003 1.446v.004c0 1.748 1.43 3.222 3.194 3.222S18 16.526 18 14.778s-1.43-3.411-3.194-3.411m0-7.664a1.59 1.59 0 0 1 1.597 1.582c0 .874-.715 1.45-1.597 1.45h-1.464v-1.45c0-.874.582-1.582 1.464-1.582M3.626 5.285a1.59 1.59 0 0 1 1.598-1.582c.882 0 1.464.708 1.464 1.582v1.45H5.224c-.882 0-1.597-.576-1.597-1.45M5.225 16.36a1.59 1.59 0 0 1-1.597-1.582c0-.874.715-1.45 1.597-1.45h1.464v1.45c0 .874-.582 1.582-1.464 1.582m3.455-5V8.714l2.673-.006v2.647zm6.127 5c-.882 0-1.464-.708-1.464-1.582v-1.45h1.464c.882 0 1.597.576 1.597 1.45a1.59 1.59 0 0 1-1.597 1.582"/></svg>
